public/images/vue.svg

<svg width="52" height="45" viewBox="0 0 52 45" fill="none" xmlns="http://www.w3.org/2000/svg">
<g id="Group 72">
<path id="Vector" d="M41.5162 0.174927H51.8078L26.0788 44.5574L0.349854 0.174927H20.0325L26.0788 10.4665L31.9965 0.174927H41.5162Z" fill="#41B883"/>
<path id="Vector_2" d="M0.349854 0.174927L26.0788 44.5574L51.8078 0.174927H41.5162L26.0788 26.8044L10.5128 0.174927H0.349854Z" fill="#41B883"/>
<path id="Vector_3" d="M10.5128 0.174927L26.0788 26.9331L41.5162 0.174927H31.9965L26.0788 10.4665L20.0325 0.174927H10.5128Z" fill="#35495E"/>
</g>
</svg>

<svg xmlns="http://www.w3.org/2000/svg" width="52" height="45" fill="none"><path fill="#41B883" d="M41.516.175h10.292l-25.73 44.382L.35.175h19.682l6.047 10.291L31.997.175h9.52Z"/><path fill="#41B883" d="m.35.175 25.729 44.382L51.808.175H41.516L26.08 26.805 10.513.174H.35Z"/><path fill="#35495E" d="m10.513.175 15.566 26.758L41.516.175h-9.52L26.08 10.466 20.032.175h-9.52Z"/></svg>
